X:170
T: Felment a kondás a fára...
M: 4/4
L: 1/4
K: F
gfec | dddc | 
dfgd | cBAG | 
ddcB | cBAG | 
ddcB | GGGG | 

